X:106
T:Vals efter Skräddaren vid Hälsåkersbro
T:(SvL Halland 106)
R:Vals
O:Lindome, Halland
B:Svenska Låtar Halland
S:Martin Andersson
S:Albert Drankenberg
S:Skräddaren vid Hälsåkersbro
N:SvL: Martin Andersson hade valsen efter Andreas, kallad Skräddaren vid Hälsåkersbro.
M:3/4
L:1/8
K:G
D2|(Bc) BA GB|DG Bd ed|cB cA FA|DG Bd g2|
(Bc) BA GB|DG Bd ed|cB cA FA|G2 z2:|
|:G2|G2 BG Bd|g2 fe d2|cd ec A2|Ac ed B2|
G2 BG Bd|g2 fe d2|cd ec AF|G4:|

